X:0142
T:The Dumb Glutton.
M:2/4
L:1/8
Q:1/2=104
I: :: ::
Z:Jack Campin * www.campin.me.uk * 2009
K:G
B2 GB|ce`cA|B2 AG|FA  c2     |
B2 GB|c2 Ac|BG`AF|G2 [G2G,2]:|
B2 GB|dg`dB|c2 Ac|fa``fd     |
Bd g2|dB`AG|c2 ec|B2  A2     |
B2 GB|ce`cA|B2 AG|FA  c2     |
B2 GB|c2 Ac|BG`AF|G2 [G2G,2]|]
<end>
<start>
